X: 39214
T: Sylvia's Serenade
R: three-two
M: 3/2
K: Dminor
F2AG F2A2 F2D2|A2dc =B2e2 ^c2A2|f4 e4 d4|a2gf efed ^c2A2|
F2AG F2A2 F2D2|A2dc =B2e2 ^c2A2|f4 e4 d4|a2gf efed d4:|
|:A2cB A2c2 A2F2|Acfc Acfc A2F2|G2BA G2B2 G2E2|EGcG EGcG E2C2|
F2AG F2A2 F2D2|f2ef gfed ^c2e2|a2g2 f2e2 d4|BAGF EFED D4:|

